outputs/icons/device/dark_mode_round.svg

<svg xmlns="http://www.w3.org/2000/svg" width="1200" height="1200" fill="none"><g clip-path="url(#a)"><path fill="#000" d="M550.5 152.5C325.5 177.001 150 368 150 600c0 248.5 201.5 450 450 450 231.5 0 422.5-175 447.5-400 4.5-39.5-39-71-77-47.5-42 27-92 42.5-145.5 42.5-149 0-270-121-270-270 0-53 15.5-103 42-144.5 22.5-33.5-2-81.5-46.5-78"/></g><defs><clipPath id="a"><path fill="#fff" d="M0 0h1200v1200H0z"/></clipPath></defs></svg>

<svg width="1200" height="1200" viewBox="0 0 1200 1200" fill="none" xmlns="http://www.w3.org/2000/svg"><g clip-path="url(#clip0_231_4449)"><path d="M550.5 152.5C325.5 177.001 150 368 150 600C150 848.5 351.5 1050 600 1050C831.5 1050 1022.5 875 1047.5 650C1052 610.5 1008.5 579 970.5 602.5C928.5 629.5 878.5 645 825 645C676 645 555 524 555 375C555 322 570.5 272 597 230.5C619.5 197 595 149 550.5 152.5Z" fill="#1D1E23"/></g><defs><clipPath id="clip0_231_4449"><path width="24" fill="white" d="M0 0H1200V1200H0V0z"/></clipPath></defs></svg>
